svg/monitor_share.svg

<?xml version="1.0" encoding="UTF-8"?><!DOCTYPE svg PUBLIC "-//W3C//DTD SVG 1.1//EN" "http://www.w3.org/Graphics/SVG/1.1/DTD/svg11.dtd"><svg xmlns="http://www.w3.org/2000/svg" xmlns:xlink="http://www.w3.org/1999/xlink" version="1.1" id="mdi-monitor-share" width="24" height="24" viewBox="0 0 24 24"><path d="M23 4V16C23 17.11 22.11 18 21 18H15V16H21V4H3V16H9V18H3C1.9 18 1 17.11 1 16V4C1 2.89 1.89 2 3 2H21C22.1 2 23 2.89 23 4M13 13H16L12 9L8 13H11V20H8V22H16V20H13V13Z" /></svg>

<svg xmlns="http://www.w3.org/2000/svg" viewBox="0 0 24 24"><path d="M23 4v12c0 1.11-.89 2-2 2h-6v-2h6V4H3v12h6v2H3a2 2 0 0 1-2-2V4c0-1.11.89-2 2-2h18a2 2 0 0 1 2 2m-10 9h3l-4-4-4 4h3v7H8v2h8v-2h-3z"/></svg>
